build/svg/cmd/lc_insertpage.svg

<?xml version="1.0" encoding="UTF-8" standalone="no"?>
<svg
   xmlns:dc="http://purl.org/dc/elements/1.1/"
   xmlns:cc="http://creativecommons.org/ns#"
   xmlns:rdf="http://www.w3.org/1999/02/22-rdf-syntax-ns#"
   xmlns:svg="http://www.w3.org/2000/svg"
   xmlns="http://www.w3.org/2000/svg"
   xmlns:sodipodi="http://sodipodi.sourceforge.net/DTD/sodipodi-0.dtd"
   xmlns:inkscape="http://www.inkscape.org/namespaces/inkscape"
   viewBox="0 0 24 24"
   version="1.1"
   id="svg6"
   sodipodi:docname="lc_insertpage.svg"
   inkscape:version="0.92.5 (2060ec1f9f, 2020-04-08)"
   inkscape:export-filename="/home/jupiter007/Libreoffice yaru theme fullcolor/build/cmd/lc_insertpage.png"
   inkscape:export-xdpi="95"
   inkscape:export-ydpi="95">
  <metadata
     id="metadata12">
    <rdf:RDF>
      <cc:Work
         rdf:about="">
        <dc:format>image/svg+xml</dc:format>
        <dc:type
           rdf:resource="http://purl.org/dc/dcmitype/StillImage" />
      </cc:Work>
    </rdf:RDF>
  </metadata>
  <defs
     id="defs10" />
  <sodipodi:namedview
     pagecolor="#ffffff"
     bordercolor="#666666"
     borderopacity="1"
     objecttolerance="10"
     gridtolerance="10"
     guidetolerance="10"
     inkscape:pageopacity="0"
     inkscape:pageshadow="2"
     inkscape:window-width="1920"
     inkscape:window-height="1011"
     id="namedview8"
     showgrid="true"
     inkscape:zoom="19.666667"
     inkscape:cx="8.2225107"
     inkscape:cy="10.998852"
     inkscape:window-x="0"
     inkscape:window-y="32"
     inkscape:window-maximized="1"
     inkscape:current-layer="svg6">
    <inkscape:grid
       type="xygrid"
       id="grid816" />
  </sodipodi:namedview>
  <path
     sodipodi:nodetypes="cccscsccccccccscscccccc"
     inkscape:connector-curvature="0"
     id="path4237-1"
     d="m 18.005384,4.999708 c 1.2582,0.0145 2.178891,-0.0306 2.931641,0.384766 0.37637,0.20766 0.673231,0.559386 0.837891,0.998046 0.16467,0.43867 0.224609,0.959588 0.224609,1.617188 v 1.488281 6.512303 c 0,0.657608 -0.0599,1.178576 -0.224609,1.617189 -0.16468,0.438609 -0.461531,0.788522 -0.837891,0.996091 -0.75272,0.415132 -1.673541,0.37165 -2.931641,0.386719 h -0.002 -12.004859 -0.0039 c -1.25819,-0.0145 -2.178891,0.0306 -2.931641,-0.384766 C 2.686614,18.407865 2.389763,18.056139 2.225093,17.617481 2.060554,17.178809 2.000475,16.6579 2.000475,16.000292 V 9.466505 7.999708 c 0,-0.6576 0.0599,-1.178577 0.224609,-1.617188 C 2.389764,5.943921 2.686615,5.593987 3.062975,5.386427 3.815745,4.971297 4.736576,5.014788 5.994666,4.999708 h 0.002 12.004859 z"
     style="font-style:normal;font-variant:normal;font-weight:normal;font-stretch:normal;font-size:15px;line-height:125%;font-family:Ubuntu;-inkscape-font-specification:Ubuntu;text-align:center;letter-spacing:0px;word-spacing:0px;writing-mode:lr-tb;text-anchor:middle;display:inline;opacity:0.6;fill:#000000;fill-opacity:1;stroke:none;stroke-width:0.99980211" />
  <path
     inkscape:connector-curvature="0"
     id="path1993"
     d="m 13.016156,6.026893 c 1.556581,0.0108 5.10999,-0.01175 6.659941,0.03877 0.461229,0.04267 1.016188,0.206419 1.15534,0.709967 0.218994,0.635346 0.108414,1.333787 0.145796,1.981924 0.0078,2.297083 0.02297,5.596429 -0.02152,7.885782 -0.0391,0.461928 -0.202551,1.012663 -0.698756,1.163664 -0.632456,0.225084 -1.284144,0.12274 -1.935974,0.154299 -1.424235,0.0068 -4.850563,0.01102 -6.27642,0.01131 -1.704531,3.49e-4 -5.407388,-0.005 -7.10619,-0.01851 C 4.426462,17.942089 3.754674,17.974029 3.353628,17.548907 2.932531,17.009124 3.066555,16.280886 3.030883,15.645122 3.019013,13.200798 3.003193,9.734025 3.052783,7.288326 3.102063,6.886286 3.222775,6.425374 3.627922,6.243851 4.296091,5.949754 5.054127,6.075832 5.753843,6.038279 c 1.754407,-0.0118 5.507874,-0.01249 7.262313,-0.01139 z"
     style="opacity:1;vector-effect:none;fill:#ffffff;fill-opacity:1;stroke:none;stroke-width:1;stroke-linecap:round;stroke-linejoin:bevel;stroke-miterlimit:4;stroke-dasharray:none;stroke-dashoffset:0;stroke-opacity:1"
     sodipodi:nodetypes="cccccccscccccccc" />
  <circle
     style="opacity:1;vector-effect:none;fill:#46a926;fill-opacity:1;stroke:none;stroke-width:3.49999976;stroke-linecap:butt;stroke-linejoin:round;stroke-miterlimit:4;stroke-dasharray:none;stroke-dashoffset:0;stroke-opacity:1"
     id="path2644"
     cy="18.499998"
     cx="20.499998"
     r="3.5" />
  <path
     inkscape:connector-curvature="0"
     id="path1063"
     overflow="visible"
     font-weight="400"
     style="color:#000000;font-weight:400;line-height:normal;font-family:sans-serif;text-indent:0;text-align:start;text-decoration:none;text-decoration-line:none;text-decoration-style:solid;text-decoration-color:#000000;text-transform:none;white-space:normal;overflow:visible;isolation:auto;mix-blend-mode:normal;fill:#ffffff;fill-opacity:1;marker:none"
     d="m 20,16 v 2 h -2.000001 v 1 H 20 v 2 h 1 v -2 h 2 v -1 h -2 v -2 z" />
</svg>

<svg xmlns="http://www.w3.org/2000/svg" viewBox="0 0 24 24"><path d="M18.005 5c1.259.014 2.18-.03 2.932.384.376.208.673.56.838.999.165.438.225.96.225 1.617v8c0 .658-.06 1.179-.225 1.617a1.875 1.875 0 01-.838.997c-.753.415-1.674.371-2.932.386H5.995c-1.259-.014-2.18.03-2.932-.384a1.88 1.88 0 01-.838-.999C2.061 17.18 2 16.657 2 16V8c0-.658.06-1.179.225-1.617.165-.44.462-.789.838-.997.753-.415 1.674-.371 2.932-.386H18.002z" style="line-height:125%;-inkscape-font-specification:Ubuntu;text-align:center" font-weight="400" font-size="15" font-family="Ubuntu" letter-spacing="0" word-spacing="0" text-anchor="middle" opacity=".6"/><path d="M13.016 6.027c1.557.01 5.11-.012 6.66.039.461.042 1.016.206 1.155.71.22.635.109 1.333.146 1.982.008 2.297.023 5.596-.021 7.885-.04.462-.203 1.013-.699 1.164-.632.225-1.284.123-1.936.154-1.424.007-4.85.011-6.276.012-1.705 0-5.408-.005-7.107-.019-.512-.012-1.183.02-1.584-.405-.421-.54-.287-1.268-.323-1.904-.012-2.444-.028-5.911.022-8.357.05-.402.17-.863.575-1.044.668-.294 1.426-.168 2.126-.206 1.754-.012 5.508-.012 7.262-.011z" fill="#fff"/><circle cy="18.5" cx="20.5" r="3.5" fill="#46a926"/><path overflow="visible" font-weight="400" style="line-height:normal;text-indent:0;text-align:start;text-decoration-line:none;text-decoration-style:solid;text-decoration-color:#000;text-transform:none;white-space:normal;isolation:auto;mix-blend-mode:normal;marker:none" d="M20 16v2h-2v1h2v2h1v-2h2v-1h-2v-2z" color="#000" font-family="sans-serif" fill="#fff"/></svg>
